src/64x64/places/folder-gruvbox-mix-aqua-desktop.svg

<?xml version="1.0" encoding="UTF-8"?>
<svg width="64" height="64" version="1.1" xmlns="http://www.w3.org/2000/svg">
 <rect x="4" y="7" width="56" height="52" rx="2.8" ry="2.8" opacity=".2"/>
 <path d="m4 13v42.2c0 1.55 1.2496 2.8 2.8 2.8h50.4c1.55 0 2.8-1.25 2.8-2.8v-42.2l-1-1h-54z" fill="#8bba7f"/>
 <path d="m6.8 6c-1.55 0-2.8 1.25-2.8 2.8v4.2h56v-4.2c0-1.55-1.25-2.8-2.8-2.8z" fill="#39433D"/>
 <path d="m20.8 51c-1.55 0-2.8 1.25-2.8 2.8v4.2h26v-4.2c0-1.55-1.25-2.8-2.8-2.8z" fill="#39433D"/>
 <path d="m6.8 6c-1.55 0-2.8 1.25-2.8 2.8v1c0-1.55 1.25-2.8 2.8-2.8h50.4c1.55 0 2.8 1.25 2.8 2.8v-1c0-1.55-1.25-2.8-2.8-2.8z" fill="#DCE0BB" opacity=".1"/>
</svg>

<svg xmlns="http://www.w3.org/2000/svg" width="64" height="64" version="1.1">
 <rect style="opacity:0.2" width="56" height="52" x="4" y="7" rx="2.8" ry="2.8"/>
 <path style="fill:#8bba7f" d="M 4,13 V 55.2 C 4,56.75 5.2496,58 6.8,58 H 57.2 C 58.75,58 60,56.75 60,55.2 V 13 L 59,12 H 5 Z"/>
 <path style="fill:#39433D" d="M 6.8,6 C 5.25,6 4,7.25 4,8.8 V 13 H 60 V 8.8 C 60,7.25 58.75,6 57.2,6 Z"/>
 <path style="fill:#39433D" d="M 20.8,51 C 19.25,51 18,52.25 18,53.8 V 58 H 44 V 53.8 C 44,52.25 42.75,51 41.2,51 Z"/>
 <path style="opacity:0.1;fill:#DCE0BB" d="M 6.8,6 C 5.25,6 4,7.25 4,8.8 V 9.8 C 4,8.25 5.25,7 6.8,7 H 57.2 C 58.75,7 60,8.25 60,9.8 V 8.8 C 60,7.25 58.75,6 57.2,6 Z"/>
</svg>
